!!! Genre: Bach WTC1 Prelude 2
!!! Title: Prelude 2
!!! Number: 2
!!! Level: 2
**kern	**kern
*clefF4	*clefG2
*k[b-e-a-]	*k[b-e-a-]
*met(c)	*met(c)
*c:	*c
=4	=4
16C\LL	16cc/LL
16E-\	16g/
16D\	16f/
16E-\JJ	16g/JJ
16G\LL	16e-/LL
16E-\	16g/
16D\	16f/
16E-\JJ	16g/JJ
16C\LL	16cc/LL
16E-\	16g/
16D\	16f/
16E-\JJ	16g/JJ
16G\LL	16e-/LL
16E-\	16g/
16D\	16f/
16E-\JJ	16g/JJ
=5	=5
16C\LL	16ee-/LL
16c\	16a-/
16B-\	16g/
16c\JJ	16a-/JJ
16A-\LL	16e-/LL
16c\	16a-/
16B-\	16g/
16c\JJ	16a-/JJ
16C\LL	16ee-/LL
16c\	16a-/
16B-\	16g/
16c\JJ	16a-/JJ
16A-\LL	16e-/LL
16c\	16a-/
16B-\	16g/
16c\JJ	16a-/JJ
=6	=6
16C\LL	16dd/LL
16An\	16f#/
16G\	16en/
16A\JJ	16f#/JJ
16F#\LL	16d/LL
16A\	16f#/
16G\	16e/
16A\JJ	16f#/JJ
16C\LL	16dd/LL
16A\	16f#/
16G\	16e/
16A\JJ	16f#/JJ
16F#\LL	16d/LL
16A\	16f#/
16G\	16e/
16A\JJ	16f#/JJ
=7	=7
16BB-\LL	16dd/LL
16B-\	16g/
16An\	16f#/
16B-\JJ	16g/JJ
16G\LL	16d/LL
16B-\	16g/
16A\	16f#/
16B-\JJ	16g/JJ
16BB-\LL	16dd/LL
16B-\	16g/
16A\	16f#/
16B-\JJ	16g/JJ
16G\LL	16d/LL
16B-\	16g/
16A\	16f#/
16B-\JJ	16g/JJ
=8	=8
16BB-\LL	16cc/LL
16G\	16en/
16F\	16d/
16G\JJ	16e/JJ
16En\LL	16c/LL
16G\	16e/
16F\	16d/
16G\JJ	16e/JJ
16BB-\LL	16cc/LL
16G\	16e/
16F\	16d/
16G\JJ	16e/JJ
16E\LL	16c/LL
16G\	16e/
16F\	16d/
16G\JJ	16e/JJ
=9	=9
16AA-\LL	16cc/LL
16A-\	16f/
16G\	16en/
16A-\JJ	16f/JJ
16F\LL	16c/LL
16A-\	16f/
16G\	16e/
16A-\JJ	16f/JJ
16AA-\LL	16cc/LL
16A-\	16f/
16G\	16e/
16A-\JJ	16f/JJ
16F\LL	16c/LL
16A-\	16f/
16G\	16e/
16A-\JJ	16f/JJ
=10	=10
16AA-\LL	16b-/LL
16D\	16f/
16C\	16e-/
16D\JJ	16f/JJ
16F\LL	16d/LL
16D\	16f/
16C\	16e-/
16D\JJ	16f/JJ
16AA-\LL	16b-/LL
16D\	16f/
16C\	16e-/
16D\JJ	16f/JJ
16F\LL	16d/LL
16D\	16f/
16C\	16e-/
16D\JJ	16f/JJ
=11	=11
16GG\LL	16b-/LL
16E-\	16g/
16D\	16f/
16E-\JJ	16g/JJ
16G\LL	16e-/LL
16E-\	16g/
16D\	16f/
16E-\JJ	16g/JJ
16GG\LL	16b-/LL
16E-\	16g/
16D\	16f/
16E-\JJ	16g/JJ
16G\LL	16e-/LL
16E-\	16g/
16D\	16f/
16E-\JJ	16g/JJ
=12	=12
16C\LL	16a-/LL
16E-\	16g/
16D\	16f/
16E-\JJ	16g/JJ
16A-\LL	16e-/LL
16E-\	16g/
16D\	16f/
16E-\JJ	16g/JJ
16C\LL	16a-/LL
16E-\	16g/
16D\	16f/
16E-\JJ	16g/JJ
16A-\LL	16e-/LL
16E-\	16g/
16D\	16f/
16E-\JJ	16g/JJ
=13	=13
16D\LL	16a-/LL
16F\	16d/
16E-\	16c/
16F\JJ	16d/JJ
16A-\LL	16B-/LL
16F\	16d/
16E-\	16c/
16F\JJ	16d/JJ
16D\LL	16a-/LL
16F\	16d/
16E-\	16c/
16F\JJ	16d/JJ
16A-\LL	16B-/LL
16F\	16d/
16E-\	16c/
16F\JJ	16d/JJ
=14	=14
E-	g
*-	*-
